modules/framework7-icons/icons/bell_fill.svg

<?xml version="1.0" encoding="UTF-8"?>
<svg width="44px" height="50px" viewBox="0 0 44 50" version="1.1" xmlns="http://www.w3.org/2000/svg" xmlns:xlink="http://www.w3.org/1999/xlink">
    <!-- Generator: Sketch 40.1 (33804) - http://www.bohemiancoding.com/sketch -->
    <title>bell_fill</title>
    <desc>Created with Sketch.</desc>
    <defs></defs>
    <g id="Page-1" stroke="none" stroke-width="1" fill="none" fill-rule="evenodd">
        <g id="bell_fill" fill="#000000">
            <path d="M22,44 C27,44 27,49.4401242 27,49.4401242 L17,49.4401242 C17,49.4401242 17,44 22,44 Z" id="Triangle-8" transform="translate(22.000000, 46.720062) scale(1, -1) translate(-22.000000, -46.720062) "></path>
            <path d="M20,3.09997559 C20,3.09997559 20,0.5 22,0.5 C24,0.5 24,3.09997559 24,3.09997559 C24,3.09997559 23,3.01000977 22,3.01000977 C21,3.01000977 20,3.09997559 20,3.09997559 Z" id="Rectangle-121"></path>
            <path d="M1.99708667,42 L42.0157317,42 C43.3584183,42 44.0376749,40.7473385 43.3173949,39.6175387 L38.4520983,31.9860475 C37.6969157,30.801501 37.1694279,28.5694868 37.2867516,27.096889 C37.2886144,27.1055852 37.3073552,26.9775561 37.3309086,26.7969393 C37.3694568,26.5013378 37.4078335,26.162093 37.4435489,25.7836145 C37.7607159,22.4225703 37.6678466,18.7583095 36.8695483,15.2847522 C35.1204278,7.67397527 30.3911301,3 22,3 C13.6088699,3 8.87957217,7.67397527 7.13045168,15.2847522 C6.33215337,18.7583095 6.23928409,22.4225703 6.55645114,25.7836145 C6.59216649,26.162093 6.63054323,26.5013378 6.66909137,26.7969393 C6.69264485,26.9775561 6.71138557,27.1055852 6.72283235,27.1766013 C6.8530612,28.5368146 6.31500823,30.7852149 5.55039711,31.9867467 L0.693993612,39.6182379 C-0.0253689144,40.7486647 0.65199761,42 1.99708667,42 Z" id="Path"></path>
        </g>
    </g>
</svg>

<svg width="44" height="50" viewBox="0 0 44 50" xmlns="http://www.w3.org/2000/svg"><g fill="#000" fill-rule="evenodd"><path d="M22 49.44c5 0 5-5.44 5-5.44H17s0 5.44 5 5.44zM20 3.1s0-2.6 2-2.6 2 2.6 2 2.6-1-.09-2-.09-2 .09-2 .09z"/><path d="M1.997 42h40.019c1.342 0 2.022-1.253 1.301-2.382l-4.865-7.632c-.755-1.184-1.283-3.417-1.165-4.89.002.01.02-.118.044-.3.038-.295.077-.634.113-1.012.317-3.361.224-7.026-.574-10.5C35.12 7.675 30.39 3 22 3 13.609 3 8.88 7.674 7.13 15.285c-.798 3.473-.89 7.138-.574 10.499a28.84 28.84 0 0 0 .167 1.393c.13 1.36-.408 3.608-1.173 4.81L.694 39.618C-.026 40.748.652 42 1.997 42z"/></g></svg>
